storage/app/icons/phosphoricons/regular/tray-arrow-up.svg

<svg xmlns="http://www.w3.org/2000/svg" fill="currentColor" viewBox="0 0 256 256"><path d="M208 32H48a16 16 0 0 0-16 16v160a16 16 0 0 0 16 16h160a16 16 0 0 0 16-16V48a16 16 0 0 0-16-16m0 16v104h-28.7a15.86 15.86 0 0 0-11.3 4.69L148.69 176h-41.38L88 156.69A15.86 15.86 0 0 0 76.69 152H48V48Zm0 160H48v-40h28.69L96 187.31a15.86 15.86 0 0 0 11.31 4.69h41.38a15.86 15.86 0 0 0 11.31-4.69L179.31 168H208zM90.34 109.66a8 8 0 0 1 0-11.32l32-32a8 8 0 0 1 11.32 0l32 32a8 8 0 0 1-11.32 11.32L136 91.31V152a8 8 0 0 1-16 0V91.31l-18.34 18.35a8 8 0 0 1-11.32 0"/></svg>

<svg xmlns="http://www.w3.org/2000/svg" viewBox="0 0 256 256" fill="currentColor"><path d="M208,32H48A16,16,0,0,0,32,48V208a16,16,0,0,0,16,16H208a16,16,0,0,0,16-16V48A16,16,0,0,0,208,32Zm0,16V152h-28.7A15.86,15.86,0,0,0,168,156.69L148.69,176H107.31L88,156.69A15.86,15.86,0,0,0,76.69,152H48V48Zm0,160H48V168H76.69L96,187.31A15.86,15.86,0,0,0,107.31,192h41.38A15.86,15.86,0,0,0,160,187.31L179.31,168H208v40ZM90.34,109.66a8,8,0,0,1,0-11.32l32-32a8,8,0,0,1,11.32,0l32,32a8,8,0,0,1-11.32,11.32L136,91.31V152a8,8,0,0,1-16,0V91.31l-18.34,18.35A8,8,0,0,1,90.34,109.66Z"/></svg>
